javascript.info/5-animation/3-js-animation/bounce-inout.svg

<?xml version="1.0" encoding="UTF-8" standalone="no"?>
<svg width="234px" height="240px" viewBox="0 0 234 240" version="1.1" xmlns="http://www.w3.org/2000/svg" xmlns:xlink="http://www.w3.org/1999/xlink" xmlns:sketch="http://www.bohemiancoding.com/sketch/ns">
    <!-- Generator: bin/sketchtool 1.3 (252) - http://www.bohemiancoding.com/sketch -->
    <title>bounce-inout.svg</title>
    <desc>Created with bin/sketchtool.</desc>
    <defs></defs>
    <g id="combined" stroke="none" stroke-width="1" fill="none" fill-rule="evenodd" sketch:type="MSPage">
        <g id="bounce-inout.svg" sketch:type="MSArtboardGroup">
            <path d="M34,209.5 L34,22.1600037" id="Line" stroke="#E8C48E" stroke-width="2" stroke-linecap="square" sketch:type="MSShapeGroup"></path>
            <path id="Line-decoration-1" d="M34,22.5 C32.95,26.28 32.05,29.52 31,33.3 C33.1,33.3 34.9,33.3 37,33.3 C35.95,29.52 35.05,26.28 34,22.5 C34,22.5 34,22.5 34,22.5 Z" stroke="#E8C48E" stroke-width="2" stroke-linecap="square"></path>
            <path d="M24.5,194 L208.509995,194" id="Line" stroke="#E8C48E" stroke-width="2" stroke-linecap="square" sketch:type="MSShapeGroup"></path>
            <path id="Line-decoration-1" d="M208.5,194 C204.72,192.95 201.48,192.05 197.7,191 C197.7,193.1 197.7,194.9 197.7,197 C201.48,195.95 204.72,195.05 208.5,194 C208.5,194 208.5,194 208.5,194 Z" stroke="#E8C48E" stroke-width="2" stroke-linecap="square"></path>
            <path d="M35.3289777,193.635841 C35.3289777,193.635841 41.2333124,187.095281 52.2325098,193.635839 C55.4414764,183.659866 71.0514816,178.107189 80.7686063,193.635839 C89.032676,167.620814 117,110.452183 144.182478,194.552328 C148.063747,176.586161 175.037321,10.6423763 208.465749,22.4456533" id="Path-747" stroke="#EE6B47" stroke-width="3" stroke-linejoin="bevel" sketch:type="MSShapeGroup"></path>
            <text id="0" sketch:type="MSTextLayer" font-family="Consolas" font-size="14" font-weight="bold" fill="#8A704D">
                <tspan x="17" y="212">0</tspan>
            </text>
            <text id="1" sketch:type="MSTextLayer" font-family="Consolas" font-size="14" font-weight="bold" fill="#8A704D">
                <tspan x="17" y="36">1</tspan>
            </text>
            <text id="-2" sketch:type="MSTextLayer" font-family="Consolas" font-size="14" font-weight="bold" fill="#8A704D">
                <tspan x="200" y="212">1</tspan>
            </text>
            <path d="M35.4840461,192.776816 C53.45735,186.177656 69.3490979,170.128038 97.137513,18.4980531 C102.051415,32.4334475 112.013077,63.0795933 127.058929,63.996791 C142.104781,64.9139886 156.560556,31.0473534 160.222221,20.3348259 C166.618848,28.1959597 165.111566,31.4251632 174.958382,31.425163 C184.805198,31.4251628 190.347191,21.8729943 191.581215,20.6199652 C193.7855,22.5969315 202.177314,24.4036062 206.959731,21.4508296" id="Path-770" stroke="#62C0DC" stroke-width="3" stroke-linejoin="bevel" sketch:type="MSShapeGroup"></path>
        </g>
    </g>
</svg>

<svg width="234" height="240" viewBox="0 0 234 240" xmlns="http://www.w3.org/2000/svg"><title>bounce-inout.svg</title><desc>Created with bin/sketchtool.</desc><g fill="none" fill-rule="evenodd"><path d="M34 209.5V22.16" stroke="#E8C48E" stroke-width="2" stroke-linecap="square"/><path d="M34 22.5l-3 10.8h6l-3-10.8z" stroke="#E8C48E" stroke-width="2" stroke-linecap="square"/><path d="M24.5 194h184.01" stroke="#E8C48E" stroke-width="2" stroke-linecap="square"/><path d="M208.5 194l-10.8-3v6l10.8-3z" stroke="#E8C48E" stroke-width="2" stroke-linecap="square"/><path d="M35.33 193.636s5.903-6.54 16.903 0c3.208-9.976 18.818-15.53 28.536 0 8.262-26.015 36.23-83.184 63.41.916 3.883-17.966 30.856-183.91 64.285-172.106" stroke="#EE6B47" stroke-width="3" stroke-linejoin="bevel"/><text font-family="Consolas" font-size="14" font-weight="bold" fill="#8A704D"><tspan x="17" y="212">0</tspan></text><text font-family="Consolas" font-size="14" font-weight="bold" fill="#8A704D"><tspan x="17" y="36">1</tspan></text><text font-family="Consolas" font-size="14" font-weight="bold" fill="#8A704D"><tspan x="200" y="212">1</tspan></text><path d="M35.484 192.777c17.973-6.6 33.865-22.65 61.654-174.28 4.913 13.936 14.875 44.583 29.92 45.5 15.047.917 29.503-32.95 33.164-43.662 6.397 7.86 4.89 11.09 14.736 11.09 9.847 0 15.39-9.552 16.623-10.805 2.207 1.977 10.598 3.784 15.38.83" stroke="#62C0DC" stroke-width="3" stroke-linejoin="bevel"/></g></svg>
